.local/share/icons/Gruvbox-Plus-Dark/apps/16/emoji-body.svg

<svg xmlns="http://www.w3.org/2000/svg" width="16" height="16" version="1.1">
<defs>
  <style id="current-color-scheme" type="text/css">
   .ColorScheme-Text { color:#ebdbb2; } .ColorScheme-Highlight { color:#458588; }
  </style>
  <linearGradient id="arrongin" x1="0%" x2="0%" y1="0%" y2="100%">
   <stop offset="0%" style="stop-color:#d79921; stop-opacity:1"/>
   <stop offset="100%" style="stop-color:#b57614; stop-opacity:1"/>
  </linearGradient>
  <linearGradient id="aurora" x1="0%" x2="0%" y1="0%" y2="100%">
   <stop offset="0%" style="stop-color:#83a598; stop-opacity:1"/>
   <stop offset="100%" style="stop-color:#b16286; stop-opacity:1"/>
  </linearGradient>
  <linearGradient id="fitdance" x1="0%" x2="0%" y1="0%" y2="100%">
   <stop offset="0%" style="stop-color:#8ec07c; stop-opacity:1"/>
   <stop offset="100%" style="stop-color:#458588; stop-opacity:1"/>
  </linearGradient>
  <linearGradient id="oomox" x1="0%" x2="0%" y1="0%" y2="100%">
   <stop offset="0%" style="stop-color:#458588; stop-opacity:1"/>
   <stop offset="100%" style="stop-color:#928374; stop-opacity:1"/>
  </linearGradient>
  <linearGradient id="rainblue" x1="0%" x2="0%" y1="0%" y2="100%">
   <stop offset="0%" style="stop-color:#b8bb26; stop-opacity:1"/>
   <stop offset="100%" style="stop-color:#076678; stop-opacity:1"/>
  </linearGradient>
  <linearGradient id="sunrise" x1="0%" x2="0%" y1="0%" y2="100%">
   <stop offset="0%" style="stop-color: #fe8019; stop-opacity:1"/>
   <stop offset="100%" style="stop-color: #fabd2f; stop-opacity:1"/>
  </linearGradient>
  <linearGradient id="telinkrin" x1="0%" x2="0%" y1="0%" y2="100%">
   <stop offset="0%" style="stop-color: #83a598; stop-opacity:1"/>
   <stop offset="100%" style="stop-color: #83a598; stop-opacity:1"/>
  </linearGradient>
  <linearGradient id="60spsycho" x1="0%" x2="0%" y1="0%" y2="100%">
   <stop offset="0%" style="stop-color: #fb4934; stop-opacity:1"/>
   <stop offset="25%" style="stop-color: #fabd2f; stop-opacity:1"/>
   <stop offset="50%" style="stop-color: #fe8019; stop-opacity:1"/>
   <stop offset="100%" style="stop-color: #689d6a; stop-opacity:1"/>
  </linearGradient>
  <linearGradient id="90ssummer" x1="0%" x2="0%" y1="0%" y2="100%">
   <stop offset="0%" style="stop-color: #b16286; stop-opacity:1"/>
   <stop offset="20%" style="stop-color: #8ec07c; stop-opacity:1"/>
   <stop offset="50%" style="stop-color: #fabd2f; stop-opacity:1"/>
   <stop offset="100%" style="stop-color: #458588; stop-opacity:1"/>
  </linearGradient>
  <linearGradient id="cyberneon" x1="0%" x2="0%" y1="0%" y2="100%">
    <stop offset="0" style="stop-color:#83a598; stop-opacity:1"/>
    <stop offset="1" style="stop-color:#b16286; stop-opacity:1"/>
  </linearGradient>
 </defs>
 <path style="fill:currentColor" class="ColorScheme-Text" d="M 8.9667969,1 C 8.3666997,1.0003399 7.9020085,1.5254041 7.9746094,2.1210938 7.9901173,2.2475596 7.998365,2.3745533 8,2.5019531 7.9987979,4.0121824 7.0407197,5.335526 5.6240647,5.8142537 5.4756034,5.8751333 5.2102813,6.0021492 5.0889456,6.0021492 L 3,6 C 2.446,6 2,6.446 2,7 v 6 c 0,0.554 0.446,1 1,1 h 2 l 6.015625,0.972656 c 0.969901,0.167761 1.907625,-0.431975 2.162109,-1.382812 L 14.837891,7.3945312 C 15.161354,6.1862585 14.25082,4.9999519 13,5 h -1.453125 c 0.04644,-0.3143191 0.07422,-0.6449394 0.07422,-1 0,-0.6374182 -0.07136,-1.2132603 -0.226563,-1.7128906 C 11.316926,2.0372942 11.224654,1.8058256 11.046875,1.5644531 10.869096,1.3230807 10.51836,1 10,1 Z M 9.2402344,2.1035156 H 10 c 0.041,0 0.09461,0.028897 0.158203,0.1152344 0.06359,0.086338 0.127723,0.2229144 0.181641,0.3964844 C 10.447678,2.962371 10.517578,3.4546722 10.517578,4 c 0,0.5289542 -0.06754,1.002621 -0.169922,1.3476562 -0.02015,0.052439 -0.01797,0.1119979 -0.02539,0.1582032 0,0.2761424 0.223858,0.4941406 0.5,0.4941406 H 13 c 0.593518,2.615e-4 1.02518,0.563551 0.871094,1.1367188 l -1.660156,6.1953122 c -0.12139,0.450287 -0.565875,0.733914 -1.025391,0.654297 L 6,13.092168 V 6.8329784 C 7.839336,6.1938537 9.1030278,4.4681945 9.1035156,2.5 V 2.49805 C 9.1021756,2.3715657 9.089867,2.2469943 9.078125,2.1210938 Z M 3,7 h 2 v 6 H 3 Z"/>
</svg>

<svg width="16" height="16" version="1.1" xmlns="http://www.w3.org/2000/svg">
  <defs>
    <style id="current-color-scheme" type="text/css">.ColorScheme-Text { color:#ebdbb2; } .ColorScheme-Highlight { color:#458588; }</style>
  </defs>
  <path class="ColorScheme-Text" d="m8.967 1c-0.6001 3.399e-4 -1.065 0.5254-0.9922 1.121 0.01551 0.1265 0.02376 0.2535 0.02539 0.3809-0.0012 1.51-0.9593 2.834-2.376 3.312-0.1485 0.06088-0.4138 0.1879-0.5351 0.1879l-2.089-0.00215c-0.554 0-1 0.446-1 1v6c0 0.554 0.446 1 1 1h2l6.016 0.9727c0.9699 0.1678 1.908-0.432 2.162-1.383l1.66-6.195c0.3235-1.208-0.5871-2.395-1.838-2.395h-1.453c0.04644-0.3143 0.07422-0.6449 0.07422-1 0-0.6374-0.07136-1.213-0.2266-1.713-0.07761-0.2498-0.1699-0.4813-0.3477-0.7227s-0.5285-0.5645-1.047-0.5645z" fill="currentColor"/>
</svg>
